categories/24/preferences-desktop-accessibility-symbolic.svg

<?xml version="1.0" encoding="UTF-8" standalone="no"?>
<svg
   xmlns:dc="http://purl.org/dc/elements/1.1/"
   xmlns:cc="http://creativecommons.org/ns#"
   xmlns:rdf="http://www.w3.org/1999/02/22-rdf-syntax-ns#"
   xmlns:svg="http://www.w3.org/2000/svg"
   xmlns="http://www.w3.org/2000/svg"
   id="svg7384"
   height="24"
   width="24"
   version="1.1">
  <title
     id="title9167">elementary Symbolic Icon Theme</title>
  <defs
     id="defs11" />
  <metadata
     id="metadata90">
    <rdf:RDF>
      <cc:Work
         rdf:about="">
        <dc:format>image/svg+xml</dc:format>
        <dc:type
           rdf:resource="http://purl.org/dc/dcmitype/StillImage" />
        <dc:title>elementary Symbolic Icon Theme</dc:title>
      </cc:Work>
    </rdf:RDF>
  </metadata>
  <path
     style="color:#bebebe;display:inline;overflow:visible;visibility:visible;fill:#bebebe;fill-opacity:1;fill-rule:nonzero;stroke:none;stroke-width:1;marker:none;enable-background:accumulate"
     id="path2990"
     d="m 12,4 c -4.418278,0 -8,3.581722 -8,8 0,4.418278 3.581722,8 8,8 4.418278,0 8,-3.581722 8,-8 0,-4.418278 -3.581722,-8 -8,-8 z m 0,2 c 3.313708,0 6,2.686291 6,6 0,3.313708 -2.686292,6 -6,6 C 8.6862915,18 6,15.313708 6,12 6,8.686291 8.6862915,6 12,6 Z" />
  <path
     id="path2986"
     d="M 12.0625 6.5 C 11.349478 6.5 10.78125 7.054708 10.78125 7.75 C 10.78125 8.445291 11.349478 9.03125 12.0625 9.03125 C 12.775522 9.03125 13.34375 8.445291 13.34375 7.75 C 13.34375 7.054708 12.775522 6.5 12.0625 6.5 z M 7.40625 9.09375 C 7.33635 9.08515 7.2821301 9.09525 7.21875 9.125 C 7.09199 9.184567 7.0017477 9.303153 7 9.4375 C 6.9984 9.571866 7.0935658 9.687478 7.21875 9.75 L 10.65625 10.8125 L 10.625 13.28125 L 9.40625 16.9375 C 9.2893824 17.104044 9.324703 17.295219 9.5 17.40625 C 9.6753044 17.517298 9.94562 17.47906 10.0625 17.3125 L 12 13.375 L 13.9375 17.3125 C 14.041388 17.485243 14.255704 17.536206 14.4375 17.4375 C 14.619297 17.33879 14.697634 17.141494 14.59375 16.96875 L 13.40625 13.28125 L 13.34375 11 L 16.84375 9.75 C 16.984644 9.65612 17.029775 9.465353 16.96875 9.3125 C 16.90772 9.15963 16.73347 9.075227 16.5625 9.09375 C 16.50276 9.10315 16.454633 9.12164 16.40625 9.15625 L 12 9.84375 L 7.625 9.15625 C 7.568278 9.11613 7.4761498 9.10234 7.40625 9.09375 z "
     style="color:#bebebe;display:inline;overflow:visible;visibility:visible;fill:#bebebe;fill-opacity:1;fill-rule:nonzero;stroke:none;stroke-width:1;marker:none;enable-background:accumulate" />
</svg>

<svg xmlns="http://www.w3.org/2000/svg" viewBox="0 0 24 24"><title>elementary Symbolic Icon Theme</title><path d="M12 4a8 8 0 1 0 0 16 8 8 0 0 0 0-16zm0 2a6 6 0 1 1 0 12 6 6 0 0 1 0-12z" color="#bebebe" overflow="visible" fill="#bebebe"/><path d="M12.063 6.5c-.714 0-1.282.555-1.282 1.25s.57 1.28 1.29 1.28 1.28-.585 1.28-1.28c0-.695-.567-1.25-1.28-1.25zM7.405 9.094a.317.317 0 0 0-.187.03.36.36 0 0 0-.22.313c-.002.135.094.25.22.313l3.436 1.063-.03 2.468-1.22 3.66c-.117.17-.08.36.094.47.175.11.446.076.563-.09L12 13.38l1.94 3.937a.367.367 0 0 0 .5.125c.18-.1.26-.297.16-.47l-1.19-3.687-.062-2.28 3.5-1.25a.368.368 0 0 0 .125-.437c-.062-.152-.237-.237-.407-.218a.347.347 0 0 0-.157.062l-4.41.68-4.376-.688a.515.515 0 0 0-.22-.062z" color="#bebebe" overflow="visible" fill="#bebebe"/></svg>
